public/images/unity.svg

<?xml version="1.0" encoding="UTF-8" standalone="no"?>
<svg
   xmlns:dc="http://purl.org/dc/elements/1.1/"
   xmlns:cc="http://creativecommons.org/ns#"
   xmlns:rdf="http://www.w3.org/1999/02/22-rdf-syntax-ns#"
   xmlns:svg="http://www.w3.org/2000/svg"
   xmlns="http://www.w3.org/2000/svg"
   width="275"
   height="100"
   viewBox="0 0 275 100"
   version="1.1"
   id="svg4">
  <metadata
     id="metadata10">
    <rdf:RDF>
      <cc:Work
         rdf:about="">
        <dc:format>image/svg+xml</dc:format>
        <dc:type
           rdf:resource="http://purl.org/dc/dcmitype/StillImage" />
        <dc:title></dc:title>
      </cc:Work>
    </rdf:RDF>
  </metadata>
  <defs
     id="defs8" />
  <path
     d="M 82.775,79.842 64.9,49.775 82.775,19.708 91.392,49.775 Z M 42.992,76.908 20.533,54.633 h 35.75 L 74.158,84.7 Z m 0,-54.358 31.075,-7.792 -17.875,30.067 H 20.442 Z M 88.642,0 48.033,10.542 41.983,20.9 29.792,20.808 0,49.775 29.792,78.742 41.983,78.65 48.033,89.008 88.642,99.642 99.55,60.133 93.408,49.867 99.55,39.6 Z m 92.216,29.242 c -5.408,0 -9.075,2.291 -11.825,6.508 h -0.183 v -5.408 h -9.533 v 39.783 h 9.716 v -22.55 c 0,-5.408 3.392,-9.167 8.067,-9.167 4.4,0 7.7,2.659 7.7,7.334 v 24.475 h 9.717 V 44.183 c 0.091,-8.708 -5.409,-14.941 -13.659,-14.941 z m -36.3,24.108 c 0,5.317 -3.025,8.983 -7.975,8.983 -4.491,0 -7.333,-2.566 -7.333,-7.241 v -24.75 h -9.717 v 26.583 c 0,8.708 4.95,14.392 13.842,14.392 5.592,0 8.708,-2.109 11.367,-5.775 h 0.275 v 4.675 h 9.35 V 30.342 H 144.65 V 53.35 Z m 55.184,-23.008 h 9.716 v 39.783 h -9.716 z m 0,-12.375 h 9.716 v 7.975 h -9.716 z m 64.808,12.375 -5.775,17.966 c -1.283,3.667 -2.292,8.709 -2.292,8.709 h -0.275 c 0,0 -1.283,-5.042 -2.566,-8.709 l -6.509,-17.966 h -10.45 l 10.725,28.325 c 2.292,6.05 3.025,8.616 3.025,10.816 0,3.3 -1.741,5.409 -5.866,5.409 h -3.759 v 8.341 h 6.234 c 8.066,0 10.908,-3.208 13.933,-12.008 L 275,30.433 H 264.55 Z M 227.608,58.483 V 37.4 h 6.234 v -6.967 h -6.234 V 17.967 h -9.716 v 12.375 h -5.5 v 6.966 h 5.5 v 23.375 c 0,7.517 5.683,9.534 10.816,9.534 4.217,0 5.317,-0.184 5.317,-0.184 v -7.7 h -2.475 c -2.292,0.092 -3.942,-0.916 -3.942,-3.85 z"
     id="path2"
     style="fill:#110b09;fill-rule:nonzero" />
</svg>

<svg width="275" height="100" viewBox="0 0 275 100" fill="none"
    xmlns="http://www.w3.org/2000/svg">
    <path d="M82.775 79.842L64.9 49.775L82.775 19.708L91.392 49.775L82.775 79.842ZM42.992 76.908L20.533 54.633H56.283L74.158 84.7L42.992 76.908ZM42.992 22.55L74.067 14.758L56.192 44.825H20.442L42.992 22.55ZM88.642 0L48.033 10.542L41.983 20.9L29.792 20.808L0 49.775L29.792 78.742L41.983 78.65L48.033 89.008L88.642 99.642L99.55 60.133L93.408 49.867L99.55 39.6L88.642 0ZM180.858 29.242C175.45 29.242 171.783 31.533 169.033 35.75H168.85V30.342H159.317V70.125H169.033V47.575C169.033 42.167 172.425 38.408 177.1 38.408C181.5 38.408 184.8 41.067 184.8 45.742V70.217H194.517V44.183C194.608 35.475 189.108 29.242 180.858 29.242V29.242ZM144.558 53.35C144.558 58.667 141.533 62.333 136.583 62.333C132.092 62.333 129.25 59.767 129.25 55.092V30.342H119.533V56.925C119.533 65.633 124.483 71.317 133.375 71.317C138.967 71.317 142.083 69.208 144.742 65.542H145.017V70.217H154.367V30.342H144.65V53.35H144.558ZM199.742 30.342H209.458V70.125H199.742V30.342ZM199.742 17.967H209.458V25.942H199.742V17.967ZM264.55 30.342L258.775 48.308C257.492 51.975 256.483 57.017 256.483 57.017H256.208C256.208 57.017 254.925 51.975 253.642 48.308L247.133 30.342H236.683L247.408 58.667C249.7 64.717 250.433 67.283 250.433 69.483C250.433 72.783 248.692 74.892 244.567 74.892H240.808V83.233H247.042C255.108 83.233 257.95 80.025 260.975 71.225L275 30.433H264.55V30.342ZM227.608 58.483V37.4H233.842V30.433H227.608V17.967H217.892V30.342H212.392V37.308H217.892V60.683C217.892 68.2 223.575 70.217 228.708 70.217C232.925 70.217 234.025 70.033 234.025 70.033V62.333H231.55C229.258 62.425 227.608 61.417 227.608 58.483Z" fill="#110B09"/>
</svg>
